X:12
T:Herne Bay Dance
M:2/4
K:D
d2|"D"A2F2 A2F2|A2Bc d2cB|A2F2 A2F2|"A7"GAGF E2d2|"D"A2F2 A2F2|
A2Bc "Bm"d2ef|"Em"g2ed "A7"cBAG|"D"F2D2 D2::"A"E2A2 A2Bc|"E"C2B2\
B2F2|^G2E2 "E7"F2G2|
"A"ABcd "E7"ecdB|"A"E2A2 A2Bc|"D"C2B2 B2F2|"E7"^G2f2 ecdB|"A"A6:|

